X: 39120
T: Sweet Dublin Bay
R: waltz
M: 3/4
K: Dminor
D2|:"Dm"D4E2|F2E2D2|"Am"c4c2|d4d2|"C"A2G2E2|D4E2|"Am"C6-|C4C2|
"Dm"D4E2|F2E2D2|"Am"c4c2|d4d2|"C"A2G2E2|D4C2|"Dm"D6-|D2c2c2|
"F"c4F2|G2A2c2|"Bb"d4e2|d2c2A2|"C"G4E2|D2C2A,2|"Am"C6-|C2F2E2|
"Bb"D4E2|"C"F2E2D2|"Am"c4d2|"Bb"d2c2A2|"C"A2G2E2|"Am"D4C2|1 "G"D6-|D4D2:|2 "Dm"D6-|D6||

